assets/Face with open eyes and hand over mouth/Flat/face_with_open_eyes_and_hand_over_mouth_flat.svg

<svg width="32" height="32" viewBox="0 0 32 32" fill="none" xmlns="http://www.w3.org/2000/svg">
<path d="M15.9989 29.9978C25.3333 29.9978 29.9978 23.7303 29.9978 15.9989C29.9978 8.26751 25.3333 2 15.9989 2C6.66443 2 2 8.26751 2 15.9989C2 23.7303 6.66443 29.9978 15.9989 29.9978Z" fill="#FFB02E"/>
<path d="M14.9989 14.4981C14.9989 16.9837 12.984 18.9987 10.4984 18.9987C8.01277 18.9987 5.9978 16.9837 5.9978 14.4981C5.9978 12.0125 8.01277 9.99756 10.4984 9.99756C12.984 9.99756 14.9989 12.0125 14.9989 14.4981Z" fill="white"/>
<path d="M16.9978 14.4981C16.9978 16.9837 19.0128 18.9987 21.4983 18.9987C23.9839 18.9987 25.9989 16.9837 25.9989 14.4981C25.9989 12.0125 23.9839 9.99756 21.4983 9.99756C19.0128 9.99756 16.9978 12.0125 16.9978 14.4981Z" fill="white"/>
<path d="M14 15C14 16.1046 13.1046 17 12 17C10.8954 17 10 16.1046 10 15C10 13.8954 10.8954 13 12 13C13.1046 13 14 13.8954 14 15Z" fill="#402A32"/>
<path d="M18 15C18 16.1046 18.8954 17 20 17C21.1046 17 22 16.1046 22 15C22 13.8954 21.1046 13 20 13C18.8954 13 18 13.8954 18 15Z" fill="#402A32"/>
<path d="M17.1321 17.459C16.6614 16.9154 15.8252 16.8445 15.2643 17.3006L11.7606 20.1499L12.056 19.1249C12.261 18.4137 11.8322 17.6762 11.0984 17.4776C10.3606 17.2779 9.59624 17.6989 9.39582 18.4155L8.58415 21.3173L7.59818 23.6161C7.58005 23.6584 7.56403 23.7013 7.55013 23.7446C7.19891 24.4014 7 25.1504 7 25.9454C7 28.5458 9.12803 30.6539 11.7531 30.6539C12.9079 30.6539 13.9665 30.2459 14.7901 29.5675L20.0746 25.8001C20.6944 25.3583 20.8187 24.5092 20.3504 23.9177C20.1464 23.6601 19.8644 23.4948 19.5611 23.4291L20.0633 23.0208C20.6503 22.5434 20.7268 21.6953 20.2343 21.1264C20.025 20.8847 19.7467 20.7323 19.4507 20.6736L19.605 20.5481C20.192 20.0708 20.2685 19.2227 19.776 18.6538C19.2834 18.0849 18.4083 18.0107 17.8213 18.4881L17.2491 18.9534C17.5369 18.4955 17.5074 17.8924 17.1321 17.459Z" fill="#FF822D"/>
<path d="M10.7753 6.99958C11.1892 6.98563 11.5135 6.63872 11.4996 6.22474C11.4856 5.81076 11.1387 5.48648 10.7247 5.50043C7.67358 5.60328 6 8.16323 6 10.25C6 10.6642 6.33579 11 6.75 11C7.16421 11 7.5 10.6642 7.5 10.25C7.5 8.83679 8.66105 7.07085 10.7753 6.99958Z" fill="#402A32"/>
<path d="M21.7247 6.99958C21.3108 6.98563 20.9865 6.63872 21.0004 6.22474C21.0144 5.81076 21.3613 5.48648 21.7753 5.50043C24.8264 5.60328 26.5 8.16323 26.5 10.25C26.5 10.6642 26.1642 11 25.75 11C25.3358 11 25 10.6642 25 10.25C25 8.83679 23.8389 7.07085 21.7247 6.99958Z" fill="#402A32"/>
</svg>

<svg xmlns="http://www.w3.org/2000/svg" width="32" height="32" fill="none"><path fill="#FFB02E" d="M15.999 29.998c9.334 0 13.999-6.268 13.999-14 0-7.73-4.665-13.998-14-13.998C6.665 2 2 8.268 2 15.999c0 7.731 4.664 13.999 13.999 13.999Z"/><path fill="#fff" d="M14.999 14.498a4.5 4.5 0 1 1-9.001 0 4.5 4.5 0 0 1 9 0ZM16.998 14.498a4.5 4.5 0 1 0 9.001 0 4.5 4.5 0 0 0-9.001 0Z"/><path fill="#402A32" d="M14 15a2 2 0 1 1-4 0 2 2 0 0 1 4 0ZM18 15a2 2 0 1 0 4 0 2 2 0 0 0-4 0Z"/><path fill="#FF822D" d="M17.132 17.459a1.355 1.355 0 0 0-1.868-.158l-3.503 2.849.295-1.025c.205-.711-.224-1.449-.958-1.647-.737-.2-1.502.22-1.702.938l-.812 2.901-.986 2.3a1.456 1.456 0 0 0-.048.128 4.653 4.653 0 0 0-.55 2.2c0 2.6 2.128 4.709 4.753 4.709a4.76 4.76 0 0 0 3.037-1.087l5.285-3.767c.62-.442.744-1.29.275-1.882a1.373 1.373 0 0 0-.789-.489l.502-.408a1.316 1.316 0 0 0 .171-1.895 1.39 1.39 0 0 0-.783-.452l.154-.126a1.316 1.316 0 0 0 .171-1.894 1.418 1.418 0 0 0-1.955-.166l-.572.465a1.254 1.254 0 0 0-.117-1.494Z"/><path fill="#402A32" d="M10.775 7a.75.75 0 0 0-.05-1.5C7.674 5.603 6 8.163 6 10.25a.75.75 0 0 0 1.5 0c0-1.413 1.161-3.18 3.275-3.25ZM21.725 7a.75.75 0 0 1 .05-1.5c3.051.103 4.725 2.663 4.725 4.75a.75.75 0 0 1-1.5 0c0-1.413-1.161-3.18-3.275-3.25Z"/></svg>
